packages/ui-icons/svg/Solid/apple.svg

<svg viewBox="0 0 1920 1920" version="1.1" xmlns="http://www.w3.org/2000/svg">
    <path d="M972.668586,550.592337 C1047.03925,550.592337 1186.48425,447.198973 1333.29829,462.277172 C1394.74479,464.88468 1567.18043,487.558663 1677.94284,652.738632 C1669.09998,658.633868 1472.06307,775.518252 1474.44384,1018.92346 C1476.93797,1309.83067 1724.4245,1406.42184 1727.25875,1407.89565 C1724.99135,1414.4711 1687.69265,1545.75347 1596.76998,1681.34389 C1518.20462,1798.45501 1436.80502,1914.99928 1308.47028,1917.38005 C1182.28956,1919.87419 1141.70313,1841.0821 997.383228,1841.0821 C853.176694,1841.0821 808.168837,1914.99928 688.676945,1919.87419 C564.763626,1924.63573 470.439855,1793.35336 391.307653,1676.69572 C229.415412,1437.8253 105.728833,1002.03135 271.815761,707.836411 C354.235691,561.702589 501.616582,469.192737 661.694904,466.811969 C783.340825,464.54457 898.29792,550.592337 972.668586,550.592337 Z M1367.75141,-5.68434189e-14 C1380.78895,110.535669 1333.06021,221.524817 1262.6575,301.450608 C1191.91467,381.26303 1076.16398,443.389744 962.680696,435.00037 C947.375757,326.50536 1004.62757,213.815663 1069.92864,142.846095 C1142.93886,63.0336736 1266.17196,3.85457717 1367.75141,-5.68434189e-14 Z" stroke="none" stroke-width="1" fill-rule="evenodd"/>
</svg>

<svg viewBox="0 0 1920 1920" xmlns="http://www.w3.org/2000/svg">
    <path d="M972.669 550.592c74.37 0 213.815-103.393 360.63-88.315 61.446 2.608 233.881 25.282 344.644 190.462-8.843 5.895-205.88 122.78-203.5 366.184 2.495 290.908 249.982 387.499 252.816 388.973-2.268 6.575-39.566 137.857-130.489 273.448-78.565 117.111-159.965 233.655-288.3 236.036-126.18 2.494-166.767-76.298-311.087-76.298-144.206 0-189.214 73.917-308.706 78.792-123.913 4.762-218.237-126.52-297.37-243.178-161.892-238.87-285.578-674.665-119.491-968.86 82.42-146.133 229.8-238.643 389.879-241.024 121.646-2.267 236.603 83.78 310.974 83.78ZM1367.75 0c13.038 110.536-34.69 221.525-105.093 301.45-70.743 79.813-186.494 141.94-299.977 133.55-15.305-108.495 41.947-221.184 107.248-292.154C1142.939 63.034 1266.172 3.855 1367.75 0Z" fill-rule="evenodd"/>
</svg>
